X:1
T:James Gibb editions
T:Psalm 121 (Becker) - Schütz
%%score [ ( 1 2 ) ( 3 4 ) ]
L:1/8
Q:1/4=98
M:3/4
K:C
V:1 treble nm="Soprano Alto"
V:2 treble 
V:3 bass nm="Tenor Bass"
V:4 bass 
V:1
"^Cornelius Becker\n(1561-1604)""^Psalm 121, SWV 226""^Heinrich Schütz\n(1585-1672)" D2 | D4 D2 | %2
w: ~Ich|heb mein|
 (A2 c2) _B2 | A4 G2 | A4 E2 | F4 G2 | (A2 c2) B2 | (d2 f2) e2 | d4 d2 | e4 B2 | c4 G2 | %11
w: Au\- * gen|sehn- lich|auf und|seh die|Ber\- * ge|hoch * hin-|auf, wann|mir mein|Gott vons|
 (A2 _B2) G2 | F4 A2 | (G2 c2) _B2 | (A2 d2) _B2 | (A2 F2) E2 | D6- | D4 |] %18
w: Him\- * mels|Thron mit|sei\- * ner|Hülf * zu-|stat\- * ten|komm.||
V:2
 A,2 | A,4 F,2 | (C2 A,2) D2 | (^C2 D2) D2 | ^C4 C2 | D4 E2 | (F2 E2) G2 | F4 A2 | A4 G2 | G4 E2 | %10
 E4 C2 | (A,2 D2) C2 | C4 C2 | C4 D2 | D4 D2 | D4 ^C2 | D6- | D4 |] %18
V:3
 F,2 | F,4 D,2 | (E,2 A,2) G,2 | (E,2 F,2) D,2 | E,4 A,2 | A,4 C2 | (C2 A,2) D2 | D4 ^C2 | D4 B,2 | %9
"^2. Mein Hülfe kommt mir von dem Herrn, er hilft uns ja von Herzen gern,\nHimmel und Erd hat er gemacht, er hält über uns Hut und Wacht.\n\n3. Er führet dich auf rechter Bahn, wird deinen Fuß nicht gleiten lan,\nsetz nur auf Gott dein Zuversicht, der dich behütet, schlummert nicht.\n\n4. Der treue Hüter Israel bewahret dir dein Leib und Seel,\ner schläft nicht, weder Tag noch Nacht, wird auch nicht müde von der Wacht.\n\n5. Vor allem Unfall gnädiglich der fromme Gott behütet dich,\nunter dem Schatten seiner Gnad bist du gesichert früh und spat.\n\n6. Der Sonnen Hitz, des Mondes Schein sollen dir nicht beschwerlich sein,\nGott wendet alle Trübsal schwer zu deinem Nutz und seiner Ehr.\n\n7. Kein Übel muß begegnen dir, des Herren Schutz ist gut dafür,\nin Gnad bewahrt er deine Seel vor allem Leid und Ungefäll.\n\n8. Der Herr dein Ausgang stets bewahr, zu Weg und Steg gesund dich spar,\nbring dich nach Haus in sein'm Geleit von nun an bis in Ewigkeit.\n" C4 G,2 | %10
 A,4 E,2 | F,2 D,2 E,2 | F,4 F,2 | E,4 G,2 | F,4 G,2 | A,4 A,2 | A,6- | A,4 |] %18
V:4
 D,2 | D,4 _B,,2 | (A,,2 F,,2) G,,2 | (A,,2 D,2) _B,,2 | A,,4 A,,2 | D,4 C,2 | (F,2 A,2) G,2 | %7
 (_B,2 D2) A,2 | D,4 G,2 | C,4 E,2 | A,,4 C,2 | (F,,2 _B,,2) C,2 | F,,4 F,,2 | C,4 G,,2 | %14
 D,4 G,,2 | D,4 A,,2 | D,6- | D,4 |] %18

